src/icons/svg/like.svg

<svg class="icon" viewBox="0 0 1024 1024" xmlns="http://www.w3.org/2000/svg" width="200" height="200"><defs><style/></defs><path d="M953.6 332.8c-12.8-6.4-19.2-12.8-32-12.8H684.8l32-211.2c0-12.8 0-25.6-6.4-32-6.4-6.4-19.2-12.8-32-12.8H544c-12.8 0-25.6 6.4-32 19.2L396.8 320H384c0-32-32-64-64-64H128c-32 0-64 32-64 64v576c0 32 32 64 64 64h710.4c19.2 0 38.4-12.8 38.4-32L960 364.8c0-12.8 0-19.2-6.4-32zM128 896V320h192v576H128zm691.2 0H384V384h51.2l19.2-38.4L563.2 128h89.6l-32 179.2L608 384h288l-76.8 512z"/></svg>

<?xml version="1.0" standalone="no"?><!DOCTYPE svg PUBLIC "-//W3C//DTD SVG 1.1//EN" "http://www.w3.org/Graphics/SVG/1.1/DTD/svg11.dtd"><svg t="1598426706478" class="icon" viewBox="0 0 1024 1024" version="1.1" xmlns="http://www.w3.org/2000/svg" p-id="2140" xmlns:xlink="http://www.w3.org/1999/xlink" width="200" height="200"><defs><style type="text/css"></style></defs><path d="M953.6 332.8C940.8 326.4 934.4 320 921.6 320l-236.8 0 32-211.2c0-12.8 0-25.6-6.4-32C704 70.4 691.2 64 678.4 64L544 64C531.2 64 518.4 70.4 512 83.2L396.8 320 384 320l0 0c0-32-32-64-64-64L128 256C96 256 64 288 64 320l0 576c0 32 32 64 64 64l710.4 0c19.2 0 38.4-12.8 38.4-32L960 364.8C960 352 960 345.6 953.6 332.8zM128 896 128 320l192 0 0 0 0 576L128 896zM819.2 896 384 896 384 384l51.2 0 19.2-38.4L563.2 128l89.6 0L620.8 307.2 608 384l76.8 0 211.2 0L819.2 896z" p-id="2141"></path></svg>
